X: 32585
T: Planxty Kelly
R: jig
M: 6/8
K: Aminor
E|EAA AGA|B2A G3/2A/B|c2B A3/2B/c|B3/2A/B g^fg|
e2d c3/2d/e|dBA GAB|cBA GED|EAA A2||
e|e^f^g a2c'|bba =g2b|a2 (3b/a/^g/ e2^f|=g2 (3a/g/e/ d2=f|
e2 (3f/e/d/ c2e|dBA GAB|cBA GED|EAA A2||

